docs/static/images/users/walmart-labs.svg

<svg width="422" height="80" xmlns="http://www.w3.org/2000/svg">
  <path d="M232.099 40.542c0 .574-.046 1.169-.218 1.691-.688 2.165-3.022 3.998-5.943 3.998-2.453 0-4.382-1.327-4.382-4.137 0-4.295 4.918-5.485 10.544-5.454zm9.313-7.488c0-7.085-3.16-13.32-13.82-13.32-5.473 0-9.822 1.474-12.19 2.787l1.728 5.698c2.166-1.313 5.626-2.4 8.902-2.4 5.405-.011 6.294 2.938 6.294 4.83v.448c-11.803-.022-19.261 3.898-19.261 11.879 0 4.874 3.796 9.441 10.413 9.441 4.047 0 7.455-1.554 9.488-4.043h.201s1.343 5.407 8.764 3.337c-.387-2.249-.519-4.647-.519-7.535zm43.386-5.162v-7.964h-7.674v-9.845h-8.698v30.71c0 4.235.839 7.201 2.619 9.011 1.561 1.586 4.114 2.613 7.17 2.613 2.604 0 5.171-.473 6.382-.909l-.12-6.604c-.89.214-1.931.38-3.341.38-3.006 0-4.012-1.841-4.012-5.642v-11.75zm-30.896-1.555h-.235v-5.899h-7.993v31.273h9.099V35.699c0-.863.046-1.618.203-2.309.671-3.355 3.34-5.498 7.188-5.498 1.055 0 1.795.115 2.619.224v-8.188a9.152 9.152 0 00-1.999-.194c-3.393 0-7.254 2.099-8.883 6.601zm-54.754-6.603c-2.567 0-4.6.616-6.431 1.698-1.546.907-2.921 2.198-4.131 3.893h-.134c-1.394-3.367-4.683-5.591-8.982-5.591-5.508 0-7.991 2.681-9.488 4.954h-.132v-4.25h-8.413v31.273h8.865V33.37c0-.859.103-1.767.42-2.559.722-1.844 2.519-4.007 5.373-4.007 3.576 0 5.255 2.899 5.255 7.084v17.823h8.848V33.149c0-.822.119-1.807.37-2.535.722-2.101 2.654-3.81 5.323-3.81 3.61 0 5.355 2.849 5.355 7.774v17.133h8.85V33.293c0-9.713-5.139-13.559-10.949-13.559zM133.405 40.54c0 .576-.046 1.171-.218 1.693-.688 2.165-3.022 3.998-5.961 3.998-2.435 0-4.366-1.327-4.366-4.137 0-4.295 4.921-5.485 10.545-5.454zm9.311-7.486c0-7.085-3.156-13.32-13.82-13.32-5.473 0-9.822 1.474-12.192 2.787l1.734 5.698c2.165-1.313 5.623-2.4 8.898-2.4 5.406-.011 6.295 2.938 6.295 4.83v.448c-11.804-.022-19.25 3.898-19.25 11.879 0 4.874 3.794 9.441 10.385 9.441 4.064 0 7.456-1.554 9.488-4.043h.202s1.358 5.407 8.78 3.337c-.386-2.249-.52-4.647-.52-7.535zm-35.029-22.971l-3.916 17.996c-1.052 5.239-2.005 9.335-2.745 14.127h-.129c-.668-4.746-1.519-8.676-2.59-13.779l-4.072-18.344h-9.65l-4.358 17.881c-1.231 5.432-2.391 9.821-3.124 14.45h-.132c-.752-4.358-1.756-9.875-2.841-15.131 0 0-2.586-12.79-3.495-17.2h-9.75s7.705 30.287 8.936 35.201c1.434 5.739 4.018 7.852 11.477 6.427L86.11 32.93c1.22-4.662 2.038-7.985 2.821-12.732h.138c.551 4.793 1.336 8.084 2.337 12.752 0 0 1.962 8.524 2.963 13.002 1.008 4.475 3.804 7.295 11.111 5.759l11.464-41.628zm39.83 41.629h8.815V10.085h-8.815zM327.162 45.73H310.67V10.084h-7.716v42.333h24.208zM348.143 40.331c0 .586-.046 1.19-.207 1.72-.649 2.204-2.852 4.07-5.606 4.07-2.315 0-4.137-1.351-4.137-4.209 0-4.373 4.642-5.584 9.95-5.553zm8.786-7.621c0-7.212-2.98-13.555-13.039-13.555-5.165 0-9.266 1.5-11.5 2.836l1.629 5.798c2.045-1.335 5.309-2.441 8.397-2.441 5.101-.013 5.942 2.989 5.942 4.915v.456c-11.136-.022-18.172 3.966-18.172 12.09 0 4.961 3.579 9.608 9.823 9.608 3.817 0 7.034-1.582 8.95-4.115h.19s1.268 5.503 8.269 3.396c-.364-2.289-.489-4.729-.489-7.667zM379.877 46.229c-3.592 0-6.508-2.359-7.389-5.485a8.187 8.187 0 01-.202-1.849v-5.039c0-.764.135-1.467.271-2.041.95-3.444 3.999-5.74 7.387-5.74 5.559 0 8.337 4.464 8.337 9.949 0 6.252-3.184 10.205-8.404 10.205m3.118-26.277c-4.948 0-8.54 1.976-10.574 4.974h-.135V10.083h-8.337v32.894c0 .946.011 1.672.022 2.298-.033 2.359-.173 4.418-.503 6.348 6.6 1.852 8.54-2.248 8.886-3.168 2.371 2.804 5.714 3.962 9.419 3.962 7.456 0 14.98-5.55 14.98-16.712.068-9.439-5.693-15.753-13.76-15.753M411.866 32.708c-4.339-1.44-5.947-2.423-5.947-4.453 0-1.964 1.679-3.338 4.758-3.338 3.007 0 5.737 1.046 7.206 1.833l1.678-5.696c-1.959-.982-5.246-1.899-9.024-1.899-7.907 0-12.874 4.386-12.874 10.018-.069 3.732 2.729 7.136 9.376 9.297 4.198 1.375 5.596 2.487 5.596 4.648 0 2.096-1.678 3.537-5.458 3.537-3.077 0-6.785-1.179-8.745-2.292l-1.678 5.827c2.518 1.31 6.226 2.227 10.354 2.227 9.026 0 13.853-4.191 13.853-9.953-.068-4.714-2.937-7.66-9.095-9.756M9.445 43.344L19.653 4.035h1.518l-9.822 37.79h21.569c.405 0 .734.341.734.76s-.329.761-.734.761zm35.513-8.242H20.281l8.906-34.09H11.058L.719 40.634c-1.544 5.96 2.141 10.835 8.192 10.835h11.247l-7.195 27.75c-.091.346.353.565.566.282l32.062-43.097c.397-.534.023-1.3-.633-1.3z" fill="#2f2951"/>
</svg>

<?xml version="1.0" encoding="UTF-8"?>
<svg width="422px" height="80px" viewBox="0 0 422 80" xmlns="http://www.w3.org/2000/svg" xmlns:xlink="http://www.w3.org/1999/xlink" version="1.1">
 <!-- Generated by Pixelmator Pro 1.4.1 -->
 <path id="path" d="M232.099 40.542 C232.099 41.116 232.053 41.711 231.881 42.233 231.193 44.398 228.859 46.231 225.938 46.231 223.485 46.231 221.556 44.904 221.556 42.094 221.556 37.799 226.474 36.609 232.1 36.64 Z M241.412 33.054 C241.412 25.969 238.252 19.734 227.592 19.734 222.119 19.734 217.77 21.208 215.402 22.521 L217.13 28.219 C219.296 26.906 222.756 25.819 226.032 25.819 231.437 25.808 232.326 28.757 232.326 30.649 L232.326 31.097 C220.523 31.075 213.065 34.995 213.065 42.976 213.065 47.85 216.861 52.417 223.478 52.417 227.525 52.417 230.933 50.863 232.966 48.374 L233.167 48.374 C233.167 48.374 234.51 53.781 241.931 51.711 241.544 49.462 241.412 47.064 241.412 44.176 Z M284.798 27.892 L284.798 19.928 277.124 19.928 277.124 10.083 268.426 10.083 268.426 40.793 C268.426 45.028 269.265 47.994 271.045 49.804 272.606 51.39 275.159 52.417 278.215 52.417 280.819 52.417 283.386 51.944 284.597 51.508 L284.477 44.904 C283.587 45.118 282.546 45.284 281.136 45.284 278.13 45.284 277.124 43.443 277.124 39.642 L277.124 27.892 Z M253.902 26.337 L253.667 26.337 253.667 20.438 245.674 20.438 245.674 51.711 254.773 51.711 254.773 35.699 C254.773 34.836 254.819 34.081 254.976 33.39 255.647 30.035 258.316 27.892 262.164 27.892 263.219 27.892 263.959 28.007 264.783 28.116 L264.783 19.928 C264.094 19.795 263.624 19.734 262.784 19.734 259.391 19.734 255.53 21.833 253.901 26.335 Z M199.148 19.734 C196.581 19.734 194.548 20.35 192.717 21.432 191.171 22.339 189.796 23.63 188.586 25.325 L188.452 25.325 C187.058 21.958 183.769 19.734 179.47 19.734 173.962 19.734 171.479 22.415 169.982 24.688 L169.85 24.688 169.85 20.438 161.437 20.438 161.437 51.711 170.302 51.711 170.302 33.37 C170.302 32.511 170.405 31.603 170.722 30.811 171.444 28.967 173.241 26.804 176.095 26.804 179.671 26.804 181.35 29.703 181.35 33.888 L181.35 51.711 190.198 51.711 190.198 33.149 C190.198 32.327 190.317 31.342 190.568 30.614 191.29 28.513 193.222 26.804 195.891 26.804 199.501 26.804 201.246 29.653 201.246 34.578 L201.246 51.711 210.096 51.711 210.096 33.293 C210.096 23.58 204.957 19.734 199.147 19.734 Z M133.405 40.54 C133.405 41.116 133.359 41.711 133.187 42.233 132.499 44.398 130.165 46.231 127.226 46.231 124.791 46.231 122.86 44.904 122.86 42.094 122.86 37.799 127.781 36.609 133.405 36.64 Z M142.716 33.054 C142.716 25.969 139.56 19.734 128.896 19.734 123.423 19.734 119.074 21.208 116.704 22.521 L118.438 28.219 C120.603 26.906 124.061 25.819 127.336 25.819 132.742 25.808 133.631 28.757 133.631 30.649 L133.631 31.097 C121.827 31.075 114.381 34.995 114.381 42.976 114.381 47.85 118.175 52.417 124.766 52.417 128.83 52.417 132.222 50.863 134.254 48.374 L134.456 48.374 C134.456 48.374 135.814 53.781 143.236 51.711 142.85 49.462 142.716 47.064 142.716 44.176 Z M107.687 10.083 L103.771 28.079 C102.719 33.318 101.766 37.414 101.026 42.206 L100.897 42.206 C100.229 37.46 99.378 33.53 98.307 28.427 L94.235 10.083 84.585 10.083 80.227 27.964 C78.996 33.396 77.836 37.785 77.103 42.414 L76.971 42.414 C76.219 38.056 75.215 32.539 74.13 27.283 74.13 27.283 71.544 14.493 70.635 10.083 L60.885 10.083 C60.885 10.083 68.59 40.37 69.821 45.284 71.255 51.023 73.839 53.136 81.298 51.711 L86.11 32.93 C87.33 28.268 88.148 24.945 88.931 20.198 L89.069 20.198 C89.62 24.991 90.405 28.282 91.406 32.95 91.406 32.95 93.368 41.474 94.369 45.952 95.377 50.427 98.173 53.247 105.48 51.711 L116.944 10.083 Z M147.517 51.712 L156.332 51.712 156.332 10.085 147.517 10.085 Z" fill="#2f2951" fill-opacity="1" stroke="none"/>
 <path id="path-1" d="M327.162 45.73 L310.67 45.73 310.67 10.084 302.954 10.084 302.954 52.417 327.162 52.417 Z" fill="#2f2951" fill-opacity="1" stroke="none"/>
 <path id="path-2" d="M348.143 40.331 C348.143 40.917 348.097 41.521 347.936 42.051 347.287 44.255 345.084 46.121 342.33 46.121 340.015 46.121 338.193 44.77 338.193 41.912 338.193 37.539 342.835 36.328 348.143 36.359 Z M356.929 32.71 C356.929 25.498 353.949 19.155 343.89 19.155 338.725 19.155 334.624 20.655 332.39 21.991 L334.019 27.789 C336.064 26.454 339.328 25.348 342.416 25.348 347.517 25.335 348.358 28.337 348.358 30.263 L348.358 30.719 C337.222 30.697 330.186 34.685 330.186 42.809 330.186 47.77 333.765 52.417 340.009 52.417 343.826 52.417 347.043 50.835 348.959 48.302 L349.149 48.302 C349.149 48.302 350.417 53.805 357.418 51.698 357.054 49.409 356.929 46.969 356.929 44.031 Z" fill="#2f2951" fill-opacity="1" stroke="none"/>
 <path id="path-3" d="M379.877 46.229 C376.285 46.229 373.369 43.87 372.488 40.744 372.353 40.171 372.286 39.533 372.286 38.895 L372.286 33.856 C372.286 33.092 372.421 32.389 372.557 31.815 373.507 28.371 376.556 26.075 379.944 26.075 385.503 26.075 388.281 30.539 388.281 36.024 388.281 42.276 385.097 46.229 379.877 46.229 M382.995 19.952 C378.047 19.952 374.455 21.928 372.421 24.926 L372.286 24.926 372.286 10.083 363.949 10.083 363.949 42.977 C363.949 43.923 363.96 44.649 363.971 45.275 363.938 47.634 363.798 49.693 363.468 51.623 370.068 53.475 372.008 49.375 372.354 48.455 374.725 51.259 378.068 52.417 381.773 52.417 389.229 52.417 396.753 46.867 396.753 35.705 396.821 26.266 391.06 19.952 382.993 19.952" fill="#2f2951" fill-opacity="1" stroke="none"/>
 <path id="path-4" d="M411.866 32.708 C407.527 31.268 405.919 30.285 405.919 28.255 405.919 26.291 407.598 24.917 410.677 24.917 413.684 24.917 416.414 25.963 417.883 26.75 L419.561 21.054 C417.602 20.072 414.315 19.155 410.537 19.155 402.63 19.155 397.663 23.541 397.663 29.173 397.594 32.905 400.392 36.309 407.039 38.47 411.237 39.845 412.635 40.957 412.635 43.118 412.635 45.214 410.957 46.655 407.177 46.655 404.1 46.655 400.392 45.476 398.432 44.363 L396.754 50.19 C399.272 51.5 402.98 52.417 407.108 52.417 416.134 52.417 420.961 48.226 420.961 42.464 420.893 37.75 418.024 34.804 411.866 32.708" fill="#2f2951" fill-opacity="1" stroke="none"/>
 <path id="path-5" d="M9.445 43.344 L19.653 4.035 21.171 4.035 11.349 41.825 32.918 41.825 C33.323 41.825 33.652 42.166 33.652 42.585 33.652 43.004 33.323 43.346 32.918 43.346 Z M44.958 35.102 L20.281 35.102 29.187 1.012 11.058 1.012 0.719 40.634 C-0.825 46.594 2.86 51.469 8.911 51.469 L20.158 51.469 12.963 79.219 C12.872 79.565 13.316 79.784 13.529 79.501 L45.591 36.404 C45.988 35.87 45.614 35.104 44.958 35.104 Z" fill="#2f2951" fill-opacity="1" stroke="none"/>
</svg>
